X: 1657
T: Sahilde Sabâ Rüzgârı
C: Mustafa Nafiz Irmak
O: Turkey
F: http://compmusic.upf.edu/node/140
N: saba--sarki--senginsemai--sahilde_saba_ruzgari--mustafa_nafiz_irmak
N: makam= saba
N: form= sarki
N: usul= senginsemai = 6/4
M: 6/4
L: 1/16
K: C _2/4B _3/4d  
Q: 1/4=39
%%MIDI tuningsystem comma53
c2{d}cBc2G2 c8 c2d2{e}d2c2 c2BAGABc c8 cBBAB4  | 
w:  Sa *  *  *  *  *  hil de  *  *  *  *  sa *  *  *  *  *  *  bâ   | 
c2d2c2B2 A2B2A2B2 c2B2{c}B2c2 cBBA(3A^3/4GA_7/8BA A8 (3c_2/4BcBAA4  | 
w:  rüz *  *  *  *  *  *  *  gâ *  *  *  *  *  *  *  *  *  *  *  *  *  rı   | 
ccBAG^3/4FGA BcdBc4 d2c2{d}c2d2 c2BAB4 c2d2c2B2 A2G2e2dc  | 
w:  ağ *  *  *  *  *  *  *  lar *  *  *  *  ken *  *  *  *  u *  *  *  yan   | 
{B}c6cd cBAGc4 c2ded2c2 dcBcB2A2 A3/2G/ABcd2c {d}cBBAA4  | 
w:  *  sen  SAZ  | 
c2{d}cBc2G2 c8 c2d2{e}d2c2 c2BAGABc c8 cBBAB4  | 
w:  Sa *  *  *  *  *  hil de  *  *  *  *  sa *  *  *  *  *  *  bâ   | 
c2d2c2B2 A2B2A2B2 c2B2{c}B2c2 cBBA(3A^3/4GA_7/8BA A8 (3c_2/4BcBAA4  | 
w:  rüz *  *  *  *  *  *  *  gâ *  *  *  *  *  *  *  *  *  *  *  *  *  rı   | 
ccBAG^3/4FGA BcdBc4 d2c2{d}c2d2 c2BAB4 c2d2c2B2 A2G2e2dc  | 
w:  ağ *  *  *  *  *  *  *  lar *  *  *  *  ken *  *  *  *  u *  *  *  yan   | 
{B}c8 .G2.G2c4 c2ded2c2 dcBcB2A2 AGABcdef edcBc4  | 
w:  *  sen  SAZ  | 
e4d2c2 cBBAB4 d2c2{d}c2d2 ccBAB2c2 cBBABABA c4dcBA  | 
w:  Kal *  *  bin *  *  *  *  de  *  *  *  *  de *  *  *  *  *  rin   | 
A2e2d2c2 B4A4 A3Bc2B2 A3GAG^F^E F4e4 d2cBc4  | 
w:  bir  *  *  *  *  *  sı *  *  *  zı  *  *  *  *  *  *  duy   | 
c4d8cBAB c2d2c2B2 A8 A2B2A2G2 c2BccBBA  | 
w:  aş *  *  *  *  *  kı *  *  *  mı  an   | 
A8 A3/2B/AG^3/4FGAB c2ded2c2 dcBcB2A2 A3/2G/ABcdef edcBc4  | 
w:  sen  SAZ  | 
e4d2c2 cBBAB4 d2c2{d}c2d2 ccBAB2c2 cBBABABA c4dcBA  | 
w:  Kal *  *  bin *  *  *  *  de  *  *  *  *  de *  *  *  *  *  rin   | 
A2e2d2c2 B4A4 A3Bc2B2 A3GAG^F^E F4e4 d2cBc4  | 
w:  bir  *  *  *  *  *  sı *  *  *  zı  *  *  *  *  *  *  duy   | 
c4d8cBAB c2d2c2B2 A8 A2B2A2G2 c2BccBBA  | 
w:  aş *  *  *  *  *  kı *  *  *  mı  an   | 
A8 (3A2^3/4F2G2(3A2B2^c2 =d8 (3c2d2e2fedc d6fe eddcd4  | 
w:  sen  SAZ  | 
=d8 e4(3d2^c2_7/8B2 c4BABc B4AG^3/4FG d8 dcc^3/4Bc4  | 
w:  Hic rin *  *  *  le  *  *  *  *  na *  *  *  *  sıl   | 
=d2e2d2^c2 d2e2d2c2 d2g2f2e2 d2c2_7/8B2cd ddcBA8z4  | 
w:  sön *  *  *  *  *  *  *  dü *  *  *  ğü *  *  *  *  mü   | 
=d2d^c_7/8B2A2 A2A_2/4B=c2_3/4d2 d2c2{d}c2d2 c2BAB4 c2d2c2B2 A2G2e2dc  | 
w:  gör  *  *  *  *  *  *  *  *  *  de  *  *  *  *  i *  *  *  nan   | 
c8 G2G2c4 c2ded2c2 dcBcB2A2 AGABcdef edcBc4  | 
w:  sen  SAZ  | 
e4d2c2 cBBAB4 d2c2{d}c2d2 ccBAB2c2 cBBABABA c4dcBA  | 
w:  Kal *  *  bin *  *  *  *  de  *  *  *  *  de *  *  *  *  *  rin   | 
A2e2d2c2 B4A4 A3Bc2B2 A3GAG^F^E F4e4 d2cBc4  | 
w:  bir  *  *  *  *  *  sı *  *  *  zı  *  *  *  *  *  *  duy   | 
c4d8cBAB c2d2c2B2 A8 A2B2A2G2 c2BccBBA  | 
w:  aş *  *  *  *  *  kı *  *  *  mı  an   | 
A8 A3/2B/AG^3/4FGAB c2ded2c2 dcBcB2A2 A3/2G/ABcdef edcBc4  | 
w:  sen  SAZ  | 
e4d2c2 cBBAB4 d2c2{d}c2d2 ccBAB2c2 cBBABABA c4dcBA  | 
w:  Kal *  *  bin *  *  *  *  de  *  *  *  *  de *  *  *  *  *  rin   | 
A2e2d2c2 B4A4 A3Bc2B2 A3GAG^F^E F4e4 d2cBc4  | 
w:  bir  *  *  *  *  *  sı *  *  *  zı  *  *  *  *  *  *  duy   | 
c4d8cBAB c2d2c2B2 A8 A2B2A2G2 c2BccBBA  | 
w:  aş *  *  *  *  *  kı *  *  *  mı  an   | 
A8 |
w:  sen   | 


